packages/web-icons/svgs/viewer.svg

<svg viewBox="0 0 65 48" xmlns="http://www.w3.org/2000/svg" class="ridi_icon"><path d="M61.4 10.2H57V1.5c0-.8-.6-1.4-1.4-1.4H1.4C.6.1 0 .7 0 1.5v38.6c0 .8.6 1.4 1.4 1.4H21v3.1h-4.6c-.8 0-1.3.6-1.3 1.3V48H42v-2c0-.8-.6-1.3-1.3-1.3h-4.6v-3.1h9.2v3.2c0 1.6 1.3 2.9 2.9 2.9h13.2c1.6 0 2.9-1.3 2.9-2.9V13.1c0-1.6-1.3-2.9-2.9-2.9zm-16.1 2.9v19.3H3.6V3.5h49.9v6.7h-5.3c-1.6 0-2.9 1.3-2.9 2.9zm9.5 32.3c-.9 0-1.7-.8-1.7-1.7 0-.9.8-1.7 1.7-1.7.9 0 1.7.8 1.7 1.7 0 1-.7 1.7-1.7 1.7zm7.3-5H47.8V15.9h14.3v24.5z"/></svg>

<?xml version="1.0" encoding="UTF-8"?>
<svg width="65px" height="48px" viewBox="0 0 65 48" version="1.1" xmlns="http://www.w3.org/2000/svg">
  <!-- Generator: Sketch 41.2 (35397) - http://www.bohemiancoding.com/sketch -->
  <title>viewer</title>
  <desc>Created with Sketch.</desc>
  <defs></defs>
  <g id="Page-1" stroke="none" stroke-width="1" fill="none" fill-rule="evenodd">
    <g id="viewer" fill="#000000">
      <g id="레이어_1">
        <path d="M61.4,10.2 L57,10.2 L57,1.5 C57,0.7 56.4,0.1 55.6,0.1 L1.4,0.1 C0.6,0.1 -1.77635684e-15,0.7 -1.77635684e-15,1.5 L-1.77635684e-15,40.1 C-1.77635684e-15,40.9 0.6,41.5 1.4,41.5 L21,41.5 L21,44.6 L16.4,44.6 C15.6,44.6 15.1,45.2 15.1,45.9 L15.1,48 L42,48 L42,46 C42,45.2 41.4,44.7 40.7,44.7 L36.1,44.7 L36.1,41.6 L45.3,41.6 L45.3,44.8 C45.3,46.4 46.6,47.7 48.2,47.7 L61.4,47.7 C63,47.7 64.3,46.4 64.3,44.8 L64.3,13.1 C64.3,11.5 63,10.2 61.4,10.2 L61.4,10.2 Z M45.3,13.1 L45.3,32.4 L3.6,32.4 L3.6,3.5 L53.5,3.5 L53.5,10.2 L48.2,10.2 C46.6,10.2 45.3,11.5 45.3,13.1 L45.3,13.1 Z M54.8,45.4 C53.9,45.4 53.1,44.6 53.1,43.7 C53.1,42.8 53.9,42 54.8,42 C55.7,42 56.5,42.8 56.5,43.7 C56.5,44.7 55.8,45.4 54.8,45.4 Z M62.1,40.4 L47.8,40.4 L47.8,15.9 L62.1,15.9 L62.1,40.4 L62.1,40.4 Z" id="Shape"></path>
      </g>
    </g>
  </g>
</svg>
